bundle/image/pages/form/img/full-logo.svg

<svg width="342" height="82" viewBox="0 0 342 82" fill="none" xmlns="http://www.w3.org/2000/svg">
<path d="M275.283 58.0187L266.751 81.5124C266.66 81.7562 266.842 82 267.086 82H272.815C272.967 82 273.12 81.9084 273.15 81.756L274.43 77.6119H282.596L283.876 81.756C283.876 81.756 284.059 82 284.211 82H290.001C290.245 82 290.428 81.7562 290.336 81.5124L281.804 58.0187C281.804 58.0187 281.621 57.7747 281.469 57.7747H275.557C275.557 57.7747 275.283 57.8663 275.222 58.0187M275.801 72.9195L278.483 64.2046L281.164 72.9195H275.832H275.801Z" fill="#989898"/>
<path d="M263.491 71.0909C262.363 69.5063 261.083 68.8969 261.022 68.836C261.662 68.3484 263.765 67.2209 263.765 63.869C263.765 61.8884 263.155 60.3953 261.876 59.3593C260.596 58.2927 258.432 57.7747 255.446 57.7747H243.684C243.501 57.7747 243.318 57.927 243.318 58.1403V81.6344C243.318 81.8172 243.47 82 243.684 82H255.385C258.432 82 260.718 81.3296 262.18 79.9888C263.643 78.6785 264.374 76.7893 264.374 74.3516C264.374 73.0108 264.1 71.9136 263.521 71.1214M249.108 62.4064H255.233C256.208 62.4064 256.909 62.6502 257.305 63.1377C257.67 63.5948 257.853 64.1739 257.853 64.8138C257.853 65.5147 257.64 66.0935 257.244 66.5506C256.848 67.0077 256.147 67.2517 255.202 67.2517H249.077V62.4064H249.108ZM257.731 76.5455C257.244 77.1244 256.482 77.3988 255.507 77.3988H249.108V71.6395H255.537C256.482 71.6395 257.213 71.9138 257.701 72.4318C258.188 72.9498 258.432 73.6204 258.432 74.4736C258.432 75.3268 258.188 75.997 257.701 76.5455" fill="#989898"/>
<path d="M315.018 81.6344V58.1708C315.018 57.9575 314.866 57.8052 314.653 57.8052H309.594C309.412 57.8052 309.229 57.9575 309.229 58.1708V71.548L299.478 57.9577C299.478 57.9577 299.295 57.8052 299.173 57.8052H294.267C294.054 57.8052 293.901 57.9575 293.901 58.1708V81.6344C293.901 81.8172 294.054 82.0001 294.267 82.0001H299.325C299.508 82.0001 299.691 81.8477 299.691 81.6344V67.7085L309.93 81.8476C309.93 81.8476 310.112 82.0001 310.204 82.0001H314.653C314.836 82.0001 315.018 81.8477 315.018 81.6344Z" fill="#989898"/>
<path d="M334.612 81.9695H341.072C341.346 81.9695 341.499 81.6952 341.377 81.4514L333.424 66.1243L340.036 58.3538C340.249 58.11 340.067 57.7747 339.762 57.7747H333.424C333.424 57.7747 333.21 57.8357 333.149 57.8967L325.867 66.7641V58.1403C325.867 57.9575 325.714 57.7747 325.501 57.7747H320.016C319.833 57.7747 319.65 57.927 319.65 58.1403V81.6344C319.65 81.8172 319.803 82 320.016 82H325.501C325.684 82 325.867 81.8477 325.867 81.6344V75.6617L328.975 71.9137L334.277 81.7865C334.277 81.7865 334.46 81.9695 334.582 81.9695" fill="#989898"/>
<path d="M204.893 57.7745H198.92C198.92 57.7745 198.677 57.8356 198.616 57.927L194.654 64.2044L190.724 57.927C190.724 57.927 190.541 57.7444 190.419 57.7444H184.264C183.989 57.7444 183.806 58.0489 183.959 58.2927L191.242 69.6891L183.685 81.3902C183.532 81.634 183.685 81.9389 183.989 81.9389H189.962C189.962 81.9389 190.206 81.8778 190.266 81.7559L194.533 74.9607L198.738 81.7559C198.738 81.7559 198.92 81.9389 199.042 81.9389H205.198C205.472 81.9389 205.655 81.634 205.502 81.3902L197.945 69.5671L205.228 58.3232C205.381 58.0794 205.228 57.7745 204.923 57.7745" fill="#989898"/>
<path d="M229.575 57.7747H209.037C208.854 57.7747 208.672 57.927 208.672 58.1403V62.5895C208.672 62.8028 208.824 62.9551 209.037 62.9551H216.229V81.6039C216.229 81.7867 216.381 81.9695 216.594 81.9695H221.957C222.14 81.9695 222.323 81.8172 222.323 81.6039V62.9551H229.606C229.789 62.9551 229.971 62.8028 229.971 62.5895V58.1403C229.971 57.9575 229.819 57.7747 229.606 57.7747" fill="#989898"/>
<path d="M157.144 81.6344V58.1708C157.144 57.9575 156.991 57.8052 156.778 57.8052H151.72C151.537 57.8052 151.354 57.9575 151.354 58.1708V71.548L141.603 57.9577C141.603 57.9577 141.42 57.8052 141.298 57.8052H136.392C136.179 57.8052 136.027 57.9575 136.027 58.1708V81.6344C136.027 81.8172 136.179 82.0001 136.392 82.0001H141.451C141.633 82.0001 141.816 81.8477 141.816 81.6344V67.7085L152.055 81.8476C152.055 81.8476 152.238 82.0001 152.329 82.0001H156.778C156.961 82.0001 157.144 81.8477 157.144 81.6344Z" fill="#989898"/>
<path d="M180.089 62.3759V58.1403C180.089 57.9575 179.936 57.7747 179.723 57.7747H162.11C161.927 57.7747 161.745 57.927 161.745 58.1403V81.6344C161.745 81.8172 161.897 82 162.11 82H179.723C179.906 82 180.089 81.8477 180.089 81.6344V77.3988C180.089 77.2159 179.936 77.0331 179.723 77.0331H167.748V71.8527H174.787C174.969 71.8527 175.152 71.7003 175.152 71.487V67.3429C175.152 67.1296 175 66.9772 174.787 66.9772H167.748V62.7416H179.723C179.906 62.7416 180.089 62.5892 180.089 62.3759Z" fill="#989898"/>
<path d="M14.4742 0.0610352H11.4879C5.14975 0.0610352 0 5.21085 0 11.549V48.2369L33.7629 82V45.3117C33.7629 38.9736 38.9126 33.8238 45.2508 33.8238H48.237L14.4742 0.0610352Z" fill="#989898"/>
<path d="M81.9692 81.9695H84.9554C91.2936 81.9695 96.4433 76.8197 96.4433 70.4815V33.7933L62.6805 0.0305176V36.7188C62.6805 43.057 57.5307 48.2068 51.1925 48.2068H48.2063L81.9692 81.9695Z" fill="#FAEC32"/>
<path d="M232.409 24.1949L229.057 27.5467C228.905 27.6991 228.661 27.6991 228.509 27.5467C227.32 26.2974 225.401 24.5602 222.689 22.3358C221.866 23.768 220.891 25.0478 219.763 26.1448C219.642 26.2666 219.398 26.2971 219.276 26.1448C218.27 25.3525 217.112 24.6213 215.863 23.9509C217.996 26.7848 220.647 29.375 223.847 31.6909C226.863 33.9153 230.032 35.6521 233.323 36.9319C233.598 37.0234 233.659 37.3588 233.445 37.5416C232.165 38.7605 230.977 40.223 229.911 41.9599C229.819 42.1122 229.606 42.2038 229.423 42.1124C223.786 39.4613 218.788 35.5305 214.431 30.3198V43.6661C214.431 43.8794 214.248 44.0321 214.065 44.0321H208.915C208.702 44.0321 208.55 43.8489 208.55 43.6661V30.5939C204.223 35.6522 199.286 39.5223 193.74 42.1124C193.558 42.2038 193.375 42.1122 193.253 41.9599C192.339 40.5277 191.211 39.1565 189.87 37.8462C189.688 37.6634 189.749 37.328 189.992 37.2366C193.619 35.7435 197.062 33.7018 200.322 31.1117C203.735 28.3997 206.478 25.4442 208.55 22.2446V11.305H191.79C191.577 11.305 191.425 11.1221 191.425 10.9393V6.21639C191.425 6.00308 191.607 5.82024 191.79 5.82024H208.55V0.39615C208.55 0.182846 208.733 0 208.915 0H214.065C214.278 0 214.431 0.182846 214.431 0.39615V5.82024H231.861C232.074 5.82024 232.226 6.00308 232.226 6.21639V10.9393C232.226 11.1526 232.044 11.305 231.861 11.305H214.431V21.9095C214.431 21.9095 214.614 22.214 214.796 22.4273C214.979 22.6711 215.101 22.8235 215.162 22.9454C218.057 20.4163 220.007 16.7597 221.043 11.9756C221.074 11.7928 221.287 11.6401 221.47 11.6706L226.193 12.4934C226.406 12.5239 226.559 12.7373 226.498 12.9506C226.132 14.4132 225.644 15.9674 225.035 17.6434C228.844 20.5991 231.282 22.5796 232.44 23.5547C232.592 23.7071 232.623 23.951 232.44 24.1034M199.378 11.6706L204.07 12.5544C204.284 12.5849 204.436 12.7983 204.375 13.0421C203.979 14.4438 203.461 16.0281 202.791 17.765C204.954 19.6238 206.386 20.9341 207.148 21.635C207.3 21.7873 207.3 22.0312 207.148 22.1531L203.918 25.505C203.766 25.6573 203.491 25.6573 203.37 25.505C202.76 24.8041 201.815 23.7986 200.444 22.5188C198.829 25.1089 197.123 27.1811 195.325 28.7352C195.173 28.8571 194.929 28.857 194.807 28.7047C193.923 27.7296 192.674 26.724 191.12 25.627C190.907 25.4746 190.907 25.1697 191.12 25.0173C194.99 22.0615 197.61 17.7348 199.012 11.9756C199.073 11.7928 199.256 11.6402 199.439 11.7011" fill="#989898"/>
<path d="M283.815 24.5606L287.015 27.7904C287.167 27.9428 287.167 28.2172 287.015 28.3696C285.339 29.6799 283.297 31.1118 280.89 32.6659C282.657 35.6521 284.973 37.8767 287.777 39.3089C288.02 39.4308 288.051 39.7354 287.868 39.9182C287.38 40.4057 286.832 41.0155 286.283 41.7468C285.674 42.5086 285.217 43.2398 284.851 43.8797C284.76 44.0625 284.516 44.1236 284.333 44.0322C280.89 42.1125 278.208 38.9737 276.411 35.4999L276.959 39.7966C276.959 39.9794 276.868 40.1623 276.685 40.2232C272.266 41.3507 267.482 42.478 262.759 43.5445C262.546 43.575 262.363 43.4532 262.302 43.2704L261.479 40.2232C255.781 41.3202 250.449 42.2951 245.512 43.0569C245.299 43.0874 245.116 42.9655 245.085 42.7522L244.141 38.4861C244.08 38.2728 244.232 38.0594 244.446 38.0289C246.457 37.7547 248.742 37.4196 251.332 37.0235V24.5606H245.085C244.872 24.5606 244.72 24.3778 244.72 24.1949V20.203C244.72 19.9896 244.903 19.8373 245.085 19.8373H251.332V16.394H246.64C246.426 16.394 246.274 16.2111 246.274 16.0283V14.0781C246.274 14.0781 246.213 13.8344 246.122 13.7734L243.135 11.61C242.952 11.4882 242.922 11.2442 243.044 11.0614L251.241 0.274207C251.241 0.274207 251.424 0.12207 251.546 0.12207H255.72C255.72 0.12207 255.964 0.182791 256.025 0.274207L263.734 10.8482C263.856 11.0006 263.826 11.2441 263.673 11.366L261.51 13.1943C261.51 13.1943 261.388 13.3774 261.388 13.4688V15.9978C261.388 16.2111 261.205 16.3635 261.022 16.3635H256.208V19.8068H262.058C262.272 19.8068 262.424 19.9896 262.424 20.1724V24.1644C262.424 24.3778 262.241 24.5301 262.058 24.5301H256.208V36.2312C256.939 36.1093 258.066 35.9263 259.529 35.713C260.748 35.5302 261.693 35.3782 262.393 35.2563C262.607 35.2258 262.82 35.3781 262.82 35.6219L262.942 37.7243L264.466 37.4502V2.13332C264.466 1.92002 264.648 1.7673 264.831 1.7673H285.126C285.339 1.7673 285.491 1.95049 285.491 2.13332V22.6714C285.491 22.8847 285.308 23.037 285.126 23.037H277.355C277.782 25.0786 278.3 26.846 278.909 28.4001C280.585 27.1507 282.078 25.8404 283.297 24.5301C283.45 24.3777 283.693 24.3777 283.846 24.5301M245.634 27.2116L248.59 26.4498C248.803 26.3889 249.016 26.5107 249.047 26.724L250.631 34.0678C250.662 34.2506 250.57 34.4637 250.357 34.5246L247.218 35.4084C247.005 35.4693 246.792 35.3475 246.731 35.1038L245.299 27.6684C245.268 27.4856 245.39 27.2726 245.573 27.2421M249.077 11.7012H258.249L253.679 5.24114L249.108 11.7012H249.077ZM259.651 34.7381L257.061 33.9763C256.878 33.9154 256.756 33.7325 256.787 33.5192L258.341 26.3278C258.371 26.1145 258.585 25.9927 258.798 26.0537L262.302 26.8765C262.515 26.9374 262.637 27.1505 262.576 27.3638L260.108 34.4945C260.047 34.6773 259.834 34.7991 259.651 34.7381ZM280.189 6.70411H269.737V9.96444H280.189V6.70411ZM269.737 18.1311H280.189V14.6877H269.737V18.1311ZM269.737 23.0675V36.3837C270.255 36.2618 271.261 36.0482 272.723 35.713C274.186 35.3779 275.314 35.1341 276.106 34.9512C274.491 31.7212 273.242 27.7602 272.358 23.0675H269.737Z" fill="#989898"/>
<path d="M310.174 10.33L314.836 12.1278C315.049 12.2192 315.141 12.4936 315.019 12.6764C313.617 14.9313 312.002 17.2167 310.174 19.5326V43.7576C310.174 43.9709 309.991 44.1233 309.808 44.1233H304.933C304.719 44.1233 304.567 43.9405 304.567 43.7576V25.688C303.196 26.9983 302.007 28.0646 301.002 28.9178C300.819 29.0702 300.575 29.0091 300.453 28.8263C299.265 27.0894 298.137 25.688 297.162 24.591C297.01 24.4082 297.04 24.1643 297.223 24.0424C299.57 22.3969 301.855 20.3553 304.079 17.9175C306.334 15.4493 308.224 12.9507 309.717 10.452C309.808 10.2997 309.991 10.2386 310.174 10.2995M308.345 0.122018L313.038 2.04176C313.282 2.13318 313.343 2.43772 313.19 2.62055C311.575 4.66217 309.625 6.76491 307.401 8.89794C305.146 11.031 302.952 12.8591 300.819 14.3827C300.636 14.5045 300.392 14.4439 300.27 14.261C299.326 12.6155 298.473 11.3357 297.68 10.391C297.528 10.2082 297.558 9.96426 297.772 9.84238C299.6 8.65397 301.459 7.16094 303.348 5.3631C305.268 3.56525 306.791 1.85866 307.919 0.243652C308.01 0.0912927 308.193 0.0610737 308.376 0.122018M341.286 16.0588V20.599C341.286 20.8124 341.103 20.9647 340.92 20.9647H334.856V39.0953C334.856 41.7464 332.692 43.9101 330.041 43.9101H323.277C323.094 43.9101 322.972 43.7883 322.911 43.636L321.448 38.669C321.387 38.4253 321.57 38.1814 321.814 38.1814H328.061C328.67 38.1814 329.158 37.6939 329.158 37.0844V20.9342H315.628C315.415 20.9342 315.263 20.7514 315.263 20.5685V16.0283C315.263 15.815 315.445 15.6626 315.628 15.6626H340.95C341.164 15.6626 341.316 15.8454 341.316 16.0283M340.128 3.0167V7.61799C340.128 7.83129 339.945 7.98363 339.762 7.98363H317.609C317.396 7.98363 317.243 7.80082 317.243 7.61799V3.0167C317.243 2.8034 317.426 2.65105 317.609 2.65105H339.762C339.975 2.65105 340.128 2.83387 340.128 3.0167Z" fill="#989898"/>
<path d="M180.089 24.3166V28.4302C180.089 28.6435 179.906 28.7962 179.723 28.7962H174.848V39.2479C174.848 41.8989 172.684 44.0623 170.033 44.0623H165.188C165.005 44.0623 164.853 43.9405 164.823 43.7576C164.579 42.4474 163.787 40.1619 163.451 39.1259C163.36 38.8821 163.543 38.6081 163.817 38.6081H168.51C169.119 38.6081 169.607 38.1206 169.607 37.5111V28.7657H153.7C153.487 28.7657 153.335 28.5829 153.335 28.4001V24.2861C153.335 24.0728 153.518 23.9204 153.7 23.9204H155.681C155.133 22.7929 154.401 21.6961 153.426 20.5991C153.213 20.3858 153.335 20.0202 153.609 19.9593C156.138 19.3498 158.515 18.4964 160.77 17.3994C159.581 15.9672 158.18 14.6266 156.565 13.3772C156.412 13.4382 155.62 13.8648 155.194 14.1085C155.041 14.2 154.858 14.1389 154.736 14.017C153.578 12.7067 152.634 11.7623 151.903 11.1529V43.6966C151.903 43.9099 151.72 44.0623 151.537 44.0623H147.149C146.936 44.0623 146.783 43.8795 146.783 43.6966V28.0645H143.614V28.1255C143.614 34.8903 142.517 40.1315 140.293 43.7881C140.171 43.971 139.897 44.0015 139.744 43.8797C138.739 43.0264 137.581 42.2647 136.331 41.6553C136.118 41.5638 136.057 41.3199 136.149 41.1371C137.885 38.1204 138.769 33.7628 138.769 28.0645H136.849C136.636 28.0645 136.484 27.8817 136.484 27.6989V23.6768C136.484 23.4635 136.667 23.3111 136.849 23.3111H146.783V20.6296L142.67 13.0421V19.3496C142.67 19.5629 142.487 19.7153 142.304 19.7153H138.556C138.343 19.7153 138.19 19.5325 138.19 19.3496V4.02253C138.19 3.80923 138.373 3.65689 138.556 3.65689H142.212C142.212 3.65689 142.487 3.71764 142.548 3.83952L146.814 11.7926V1.64564C146.814 1.43233 146.997 1.27999 147.179 1.27999H151.567C151.781 1.27999 151.933 1.4628 151.933 1.64564V10.3911C154.615 9.2636 157.022 7.80101 159.307 5.88128C161.532 4.05296 163.36 2.28532 164.701 0.274177C164.792 0.152289 164.945 0.0915687 165.097 0.122041L169.729 1.31049C170.003 1.37143 170.094 1.676 169.942 1.91978C169.485 2.55969 169.028 3.13852 168.571 3.68702H175.884C175.884 3.68702 176.006 3.68705 176.036 3.71752L179.083 5.08898C179.266 5.18039 179.358 5.39343 179.266 5.57626C175.64 14.5045 167.961 20.5076 156.565 23.9509H169.607V18.8318C169.607 18.6185 169.79 18.4662 169.972 18.4662H174.482C174.696 18.4662 174.848 18.649 174.848 18.8318V23.9509H179.723C179.937 23.9509 180.089 24.1337 180.089 24.3166ZM156.047 31.4473L159.642 29.3445C159.795 29.2531 160.008 29.2836 160.13 29.4055C162.476 31.8737 164.061 33.9153 164.884 35.4999C164.975 35.6827 164.884 35.8961 164.731 35.9875L160.8 38.3034C160.618 38.4253 160.374 38.3338 160.282 38.1509C159.49 36.414 158.058 34.3724 156.016 32.026C155.864 31.8432 155.894 31.5691 156.108 31.4473M160.13 11.2139C162.08 12.707 163.543 14.0476 164.548 15.236C165.341 14.7484 166.041 14.2609 166.681 13.7734C165.371 12.3717 163.787 11.0918 161.928 9.93391C161.745 10.0558 161.44 10.269 161.044 10.5737C160.648 10.8784 160.343 11.092 160.13 11.2139ZM172.38 7.37437H164.944C167.017 8.71513 168.601 9.9338 169.698 10.9698C170.856 9.62908 171.77 8.41041 172.38 7.37437Z" fill="#989898"/>
</svg>

<svg width="342" height="82" fill="none" xmlns="http://www.w3.org/2000/svg"><path d="m275.283 58.019-8.532 23.493a.36.36 0 0 0 .335.488h5.729c.152 0 .305-.092.335-.244l1.28-4.144h8.166l1.28 4.144s.183.244.335.244h5.79a.359.359 0 0 0 .335-.488l-8.532-23.493s-.183-.244-.335-.244h-5.912s-.274.091-.335.244m.579 14.9 2.682-8.714 2.681 8.715H275.801zM263.491 71.09c-1.128-1.584-2.408-2.193-2.469-2.254.64-.488 2.743-1.615 2.743-4.967 0-1.98-.61-3.474-1.889-4.51-1.28-1.066-3.444-1.584-6.43-1.584h-11.762a.37.37 0 0 0-.366.365v23.494a.37.37 0 0 0 .366.366h11.701c3.047 0 5.333-.67 6.795-2.011 1.463-1.31 2.194-3.2 2.194-5.637 0-1.341-.274-2.438-.853-3.23m-14.413-8.716h6.125c.975 0 1.676.244 2.072.732.365.457.548 1.036.548 1.676 0 .7-.213 1.28-.609 1.737-.396.457-1.097.7-2.042.7h-6.125v-4.845h.031zm8.623 14.14c-.487.578-1.249.853-2.224.853h-6.399v-5.76h6.429c.945 0 1.676.275 2.164.793.487.518.731 1.188.731 2.042 0 .853-.244 1.523-.731 2.072M315.018 81.634V58.171a.352.352 0 0 0-.365-.366h-5.059a.37.37 0 0 0-.365.366v13.377l-9.751-13.59s-.183-.153-.305-.153h-4.906a.352.352 0 0 0-.366.366v23.463c0 .183.153.366.366.366h5.058a.37.37 0 0 0 .366-.366V67.71l10.239 14.139s.182.152.274.152h4.449a.37.37 0 0 0 .365-.366zM334.612 81.97h6.46c.274 0 .427-.275.305-.519l-7.953-15.327 6.612-7.77c.213-.244.031-.58-.274-.58h-6.338s-.214.062-.275.123l-7.282 8.867V58.14a.371.371 0 0 0-.366-.365h-5.485a.37.37 0 0 0-.366.365v23.494c0 .183.153.366.366.366h5.485a.37.37 0 0 0 .366-.366v-5.972l3.108-3.748 5.302 9.873s.183.182.305.182M204.893 57.775h-5.973s-.243.06-.304.152l-3.962 6.277-3.93-6.277s-.183-.183-.305-.183h-6.155a.359.359 0 0 0-.305.549l7.283 11.396-7.557 11.701c-.153.244 0 .549.304.549h5.973s.244-.061.304-.183l4.267-6.795 4.205 6.795s.182.183.304.183h6.156a.359.359 0 0 0 .304-.549l-7.557-11.823 7.283-11.244c.153-.244 0-.548-.305-.548M229.575 57.775h-20.538a.37.37 0 0 0-.365.365v4.45c0 .213.152.365.365.365h7.192v18.649a.37.37 0 0 0 .365.365h5.363a.37.37 0 0 0 .366-.365V62.955h7.283a.37.37 0 0 0 .365-.365v-4.45a.37.37 0 0 0-.365-.365M157.144 81.634V58.171a.352.352 0 0 0-.366-.366h-5.058a.37.37 0 0 0-.366.366v13.377l-9.751-13.59s-.183-.153-.305-.153h-4.906a.352.352 0 0 0-.365.366v23.463a.37.37 0 0 0 .365.366h5.059a.37.37 0 0 0 .365-.366V67.71l10.239 14.139s.183.152.274.152h4.449a.37.37 0 0 0 .366-.366zM180.089 62.376V58.14a.371.371 0 0 0-.366-.365H162.11a.37.37 0 0 0-.365.365v23.494a.37.37 0 0 0 .365.366h17.613a.37.37 0 0 0 .366-.366V77.4a.371.371 0 0 0-.366-.366h-11.975v-5.18h7.039a.37.37 0 0 0 .365-.366v-4.144a.352.352 0 0 0-.365-.366h-7.039v-4.235h11.975a.37.37 0 0 0 .366-.366zM14.474.061h-2.986C5.15.061 0 5.211 0 11.549v36.688L33.763 82V45.312c0-6.338 5.15-11.488 11.488-11.488h2.986L14.474.06z" fill="#989898"/><path d="M81.97 81.97h2.985c6.339 0 11.488-5.15 11.488-11.489V33.793L62.681.031v36.688c0 6.338-5.15 11.488-11.488 11.488h-2.987L81.97 81.969z" fill="#FAEC32"/><path d="m232.409 24.195-3.352 3.352a.386.386 0 0 1-.548 0c-1.189-1.25-3.108-2.987-5.82-5.211-.823 1.432-1.798 2.712-2.926 3.809-.121.122-.365.152-.487 0-1.006-.793-2.164-1.524-3.413-2.194 2.133 2.834 4.784 5.424 7.984 7.74a40.9 40.9 0 0 0 9.476 5.24.352.352 0 0 1 .122.61c-1.28 1.22-2.468 2.682-3.534 4.419-.092.152-.305.244-.488.152-5.637-2.65-10.635-6.581-14.992-11.792v13.346a.371.371 0 0 1-.366.366h-5.15a.37.37 0 0 1-.365-.366V30.594c-4.327 5.058-9.264 8.928-14.81 11.518-.182.092-.365 0-.487-.152-.914-1.432-2.042-2.803-3.383-4.114-.182-.183-.121-.518.122-.61 3.627-1.492 7.07-3.534 10.33-6.124 3.413-2.712 6.156-5.668 8.228-8.867v-10.94h-16.76a.37.37 0 0 1-.365-.366V6.216c0-.213.182-.396.365-.396h16.76V.396c0-.213.183-.396.365-.396h5.15c.213 0 .366.183.366.396V5.82h17.43c.213 0 .365.183.365.396v4.723a.37.37 0 0 1-.365.366h-17.43V21.91s.183.304.365.517c.183.244.305.396.366.518 2.895-2.529 4.845-6.185 5.881-10.97.031-.182.244-.335.427-.304l4.723.822c.213.03.366.244.305.458-.366 1.462-.854 3.016-1.463 4.692 3.809 2.956 6.247 4.937 7.405 5.912.152.152.183.396 0 .548m-33.062-12.432 4.692.883c.214.03.366.244.305.488a53.823 53.823 0 0 1-1.584 4.723 165.478 165.478 0 0 1 4.357 3.87c.152.152.152.396 0 .518l-3.23 3.352c-.152.152-.427.152-.548 0-.61-.7-1.555-1.706-2.926-2.986-1.615 2.59-3.321 4.662-5.119 6.216-.152.122-.396.122-.518-.03-.884-.975-2.133-1.981-3.687-3.078a.37.37 0 0 1 0-.61c3.87-2.956 6.49-7.282 7.892-13.041.061-.183.244-.336.427-.275M283.815 24.56l3.2 3.23a.425.425 0 0 1 0 .58c-1.676 1.31-3.718 2.742-6.125 4.296 1.767 2.986 4.083 5.21 6.887 6.643.243.122.274.426.091.61a17.123 17.123 0 0 0-1.585 1.828 16.39 16.39 0 0 0-1.432 2.133c-.091.182-.335.244-.518.152-3.443-1.92-6.125-5.058-7.922-8.532l.548 4.297c0 .182-.091.365-.274.426-4.419 1.128-9.203 2.255-13.926 3.322a.411.411 0 0 1-.457-.275l-.823-3.047c-5.698 1.097-11.03 2.072-15.967 2.834-.213.03-.396-.092-.427-.305l-.944-4.266a.367.367 0 0 1 .305-.457c2.011-.274 4.296-.61 6.886-1.006V24.561h-6.247a.37.37 0 0 1-.365-.366v-3.992a.37.37 0 0 1 .365-.366h6.247v-3.443h-4.692a.37.37 0 0 1-.366-.366v-1.95s-.061-.244-.152-.305l-2.987-2.163c-.183-.122-.213-.366-.091-.549L251.241.274s.183-.152.305-.152h4.174s.244.06.305.152l7.709 10.574a.38.38 0 0 1-.061.518l-2.163 1.828s-.122.183-.122.275v2.529a.37.37 0 0 1-.366.365h-4.814v3.444h5.85a.37.37 0 0 1 .366.365v3.992a.37.37 0 0 1-.366.366h-5.85v11.701a162.51 162.51 0 0 1 3.321-.518c1.219-.183 2.164-.335 2.864-.457a.368.368 0 0 1 .427.366l.122 2.102 1.524-.274V2.133a.37.37 0 0 1 .365-.366h20.295a.37.37 0 0 1 .365.366v20.538a.37.37 0 0 1-.365.366h-7.771c.427 2.042.945 3.809 1.554 5.363 1.676-1.25 3.169-2.56 4.388-3.87a.387.387 0 0 1 .549 0m-38.212 2.682 2.956-.762c.213-.061.426.06.457.274l1.584 7.344c.031.183-.061.396-.274.457l-3.139.883c-.213.061-.426-.06-.487-.304l-1.432-7.436c-.031-.182.091-.395.274-.426m3.504-15.54h9.172l-4.57-6.46-4.571 6.46h-.031zm10.574 23.036-2.59-.762a.41.41 0 0 1-.274-.457l1.554-7.191c.03-.213.244-.335.457-.274l3.504.823c.213.06.335.274.274.487l-2.468 7.13c-.061.183-.274.305-.457.244zm20.538-28.034h-10.452v3.26h10.452v-3.26zm-10.452 11.427h10.452v-3.443h-10.452v3.443zm0 4.936v13.317c.518-.122 1.524-.336 2.986-.671 1.463-.335 2.591-.579 3.383-.762-1.615-3.23-2.864-7.19-3.748-11.884h-2.621zM310.174 10.33l4.662 1.798c.213.091.305.366.183.548a75.14 75.14 0 0 1-4.845 6.857v24.225a.37.37 0 0 1-.366.365h-4.875a.37.37 0 0 1-.366-.365v-18.07a82.271 82.271 0 0 1-3.565 3.23c-.183.152-.427.091-.549-.092a42.432 42.432 0 0 0-3.291-4.235c-.152-.183-.122-.427.061-.549 2.347-1.645 4.632-3.687 6.856-6.125 2.255-2.468 4.145-4.966 5.638-7.465.091-.152.274-.213.457-.152M308.345.121l4.693 1.92a.37.37 0 0 1 .152.579c-1.615 2.041-3.565 4.144-5.789 6.277-2.255 2.133-4.449 3.961-6.582 5.485a.398.398 0 0 1-.549-.122c-.944-1.645-1.797-2.925-2.59-3.87-.152-.183-.122-.427.092-.549 1.828-1.188 3.687-2.681 5.576-4.479 1.92-1.798 3.443-3.504 4.571-5.12.091-.152.274-.182.457-.121m32.91 15.937v4.54a.37.37 0 0 1-.366.366h-6.064v18.13a4.825 4.825 0 0 1-4.815 4.815h-6.764c-.183 0-.305-.122-.366-.274l-1.463-4.967c-.061-.244.122-.488.366-.488h6.247c.609 0 1.097-.487 1.097-1.097v-16.15h-13.53a.37.37 0 0 1-.365-.366v-4.54a.37.37 0 0 1 .365-.365h25.322a.37.37 0 0 1 .366.365m-1.188-13.011v4.601a.37.37 0 0 1-.366.366h-22.153a.371.371 0 0 1-.366-.366V3.017a.37.37 0 0 1 .366-.366h22.153c.213 0 .366.183.366.366zM180.089 24.317v4.113a.371.371 0 0 1-.366.366h-4.875v10.452a4.825 4.825 0 0 1-4.815 4.814h-4.845a.36.36 0 0 1-.365-.304c-.244-1.31-1.036-3.596-1.372-4.632a.388.388 0 0 1 .366-.518h4.693c.609 0 1.097-.487 1.097-1.097v-8.745H153.7a.37.37 0 0 1-.365-.366v-4.114a.37.37 0 0 1 .365-.366h1.981c-.548-1.127-1.28-2.224-2.255-3.32-.213-.214-.091-.58.183-.64a35.07 35.07 0 0 0 7.161-2.56c-1.189-1.433-2.59-2.773-4.205-4.023-.153.061-.945.488-1.371.731-.153.092-.336.03-.458-.091-1.158-1.31-2.102-2.255-2.833-2.864v32.544a.37.37 0 0 1-.366.365h-4.388a.371.371 0 0 1-.366-.365V28.064h-3.169v.061c0 6.765-1.097 12.007-3.321 15.663a.395.395 0 0 1-.549.092 16.423 16.423 0 0 0-3.413-2.225.376.376 0 0 1-.182-.518c1.736-3.017 2.62-7.374 2.62-13.073h-1.92a.37.37 0 0 1-.365-.365v-4.022a.37.37 0 0 1 .365-.366h9.934V20.63l-4.113-7.588v6.308a.37.37 0 0 1-.366.365h-3.748a.371.371 0 0 1-.366-.365V4.023a.37.37 0 0 1 .366-.366h3.656s.275.06.336.183l4.266 7.953V1.646a.37.37 0 0 1 .365-.366h4.388a.37.37 0 0 1 .366.366v8.745a28.37 28.37 0 0 0 7.374-4.51c2.225-1.828 4.053-3.596 5.394-5.607a.396.396 0 0 1 .396-.152l4.632 1.188c.274.061.365.366.213.61-.457.64-.914 1.219-1.371 1.767h7.313s.122 0 .152.03l3.047 1.372c.183.091.275.304.183.487-3.626 8.928-11.305 14.932-22.701 18.375h13.042v-5.12a.37.37 0 0 1 .365-.365h4.51a.37.37 0 0 1 .366.366v5.119h4.875a.37.37 0 0 1 .366.366zm-24.042 7.13 3.595-2.102a.415.415 0 0 1 .488.06c2.346 2.469 3.931 4.51 4.754 6.095.091.183 0 .396-.153.487l-3.931 2.316c-.182.122-.426.03-.518-.152-.792-1.737-2.224-3.779-4.266-6.125-.152-.183-.122-.457.092-.579m4.022-20.233c1.95 1.493 3.413 2.834 4.418 4.022a25.775 25.775 0 0 0 2.133-1.463c-1.31-1.401-2.894-2.681-4.753-3.84-.183.123-.488.336-.884.64a9.015 9.015 0 0 1-.914.64zm12.25-3.84h-7.436c2.073 1.341 3.657 2.56 4.754 3.596 1.158-1.34 2.072-2.56 2.682-3.596z" fill="#989898"/></svg>
